dist/svgs/geomicons-open/icons/link.svg

<svg xmlns="http://www.w3.org/2000/svg" viewBox="0 0 32 32"><path d="M0 16a8 8 0 018-8h6a8 8 0 018 8h-4a4 4 0 00-4-4H8a4 4 0 00-4 4 4 4 0 004 4l2 4H8a8 8 0 01-8-8zm22-8h2a8 8 0 018 8 8 8 0 01-8 8h-6a8 8 0 01-8-8h4a4 4 0 004 4h6a4 4 0 004-4 4 4 0 00-4-4z"/></svg>

<svg id="link" xmlns="http://www.w3.org/2000/svg" viewBox="0 0 32 32" width="32" height="32" fill="currentcolor">
  <path d="M0 16 A8 8 0 0 1 8 8 L14 8 A8 8 0 0 1 22 16 L18 16 A4 4 0 0 0 14 12 L8 12 A4 4 0 0 0 4 16 A4 4 0 0 0 8 20 L10 24 L8 24 A8 8 0 0 1 0 16z M22 8 L24 8 A8 8 0 0 1 32 16 A8 8 0 0 1 24 24 L18 24 A8 8 0 0 1 10 16 L14 16 A4 4 0 0 0 18 20 L24 20 A4 4 0 0 0 28 16 A4 4 0 0 0 24 12z"></path>
</svg>
